X: 1
T: Clicking Chickens, The
M: 4/4
L: 1/8
R: reel
K: Dmaj
A3B AF~F2|AFEF AFDF|A3B AF~F2|AFEF D3F:|
|:Ad~d2 Ad~d2|Be~e2 Be~e2|~f3e dA~A2|BdAF EFDF:|
